!!!OTL: 558b. Mein eigen soll sie sein.
!!!ARE: Europa, Mitteleuropa, Deutschland, Lahngegend; Taunus
!!!SCT: E0558A
!!!TXL: @@DE
!!!YEM: Copyright 1995, estate of Helmut Schaffrath.
**kern	**text
*ICvox	*
*M4/4	*
*met(c)	*
*k[f#]	*
*G:	*
!LO:TX:a:t=Mäßig bewegt.	!
!LO:TX:a:t=Aus der Lahngegend und vom Taunus.	!
{4d	Auf
=1	=1
4.g	Trau-
8a	-ern
4b	folgt
8ccL	groß
8eeJ	.
=2	=2
2dd	Freud,
4r}	.
{4b	das
=3	=3
4.dd	tröſt'
8cc	mich
4ee	al-
4dd	-le
=4	=4
2b	Ʒeit.
4r}	.
{4dd	Weiß
=5	=5
4.b	mir
8dd	ein
4dd	wack-
4ee	-res
=6	=6
4.dd	Mä-
8cc	-de-
4cc}	-lein,
{4dd	ſo
=7	=7
4b	ſchön
4b	als
8ddL	wie
8ccJ	.
4b	ein
=8	=8
4.b/	Rö-
8a	-ſe-
4a}	-lein,
{4dd	das
=9	=9
(4.b	mir,
16ccL	.
16bJ	.
4a)	.
4dd	das
=10	=10
(4.b	mir,
16ccL	.
16bJ	.
4a)}	.
{4ee	das
=11	=11
4dd	mir
8ff#L	mein
8eeJ	.
4dd	Herʒ
4cc	er-
=12	=12
2b	-freut.
4r}	.
==	==
!!!AGN: Liebes - Lied
!!!ONB: ESAC (Essen Associative Code) Database: ERK1
!!!AMT: simple quadruple
!!!AIN: vox
!!!EED: Helmut Schaffrath
!!!EEV: 1.0
!!!GTL: Liebeslieder [Neuere (aus dem 18. bis 19. Jahrh.) - Liebeslust]
!!!URL-scan: https://rosdok.uni-rostock.de/mcrviewer/recordIdentifier/rosdok_ppn745177662/iview2/phys_0388.iview2?x=-128.77276441889308&y=1665.0437718178146&scale=0.5870222003877485&rotation=0&layout=singlePageLayout
!!!ENC: Anna Maria Matuszewska
!!!EEV: 2024/10/12
*-	*-
